;FLAVOR:Marlin
;TIME:6666
;Filament used: 0m
;Layer height: 0.1
;MINX:2.14748e+06
;MINY:2.14748e+06
;MINZ:2.14748e+06
;MAXX:-2.14748e+06
;MAXY:-2.14748e+06
;MAXZ:-2.14748e+06

;Generated with Cura_SteamEngine master
M104 S200
M105
M109 S200
M82 ;absolute extrusion mode
G28 ;Home
G1 Z15.0 F6000 ;Move the platform down 15mm
;Prime the extruder
G92 E0
G1 F200 E3
G92 E0
G92 E0
G92 E0
G1 F1500 E-6.5
;LAYER_COUNT:78
;LAYER:0
M107
;MESH:2540.stl
G0 F3600 X15.4 Y19.4 Z0.3
;TYPE:WALL-OUTER
G1 F1500 E0
G1 F1800 X15.4 Y21 E0.07982
G1 X14.2 Y21 E0.13969
G1 X14.2 Y18.2 E0.27939
G1 X21.8 Y18.2 E0.65855
G1 X21.8 Y21 E0.79824
G1 X20.6 Y21 E0.85811
G1 X20.6 Y19.4 E0.93794
G1 X19.39 Y19.4 E0.9983
G1 X19.389 Y21 E1.07813
G1 X16.81 Y21 E1.20679
G1 X16.61 Y21 E1.21677
G1 X16.61 Y20.8 E1.22323
G1 X16.611 Y19.6 E1.2831
G1 X16.611 Y19.4 E1.29308
G1 X16.411 Y19.4 E1.29954
G1 X15.4 Y19.4 E1.34998
G0 F3600 X15.4 Y19.6
G0 X15 Y19
;TYPE:WALL-INNER
G1 F1800 X15 Y20.6 E1.4298
G1 X14.6 Y20.6 E1.44976
G1 X14.6 Y19 E1.52958
G1 X14.6 Y18.6 E1.54954
G1 X15 Y18.6 E1.5695
G1 X17.011 Y18.6 E1.66983
G1 X18.99 Y18.6 E1.76856
G1 X21 Y18.6 E1.86884
G1 X21.4 Y18.6 E1.88879
G1 X21.4 Y19 E1.90875
G1 X21.4 Y20.6 E1.98857
G1 X21 Y20.6 E2.00853
G1 X21 Y19 E2.08835
G1 X18.99 Y19 E2.18863
G1 X18.989 Y20.6 E2.26846
G1 X17.21 Y20.6 E2.35721
G1 X17.01 Y20.6 E2.36719
G1 X17.01 Y20.4 E2.37365
G1 X17.011 Y19 E2.4435
G1 X15 Y19 E2.54383
G0 F3600 X14.93 Y18.93
G0 X17.401 Y18.99
;TYPE:SKIN
G1 F1800 X18.6 Y18.99 E2.60365
G1 X18.599 Y20.21 E2.66451
G1 X17.4 Y20.21 E2.72433
G1 X17.401 Y18.99 E2.7852
G0 F3600 X18.42 Y19.551
G1 F1800 X18.038 Y19.169 E2.81215
G0 F3600 X17.58 Y19.277
G1 F1800 X18.332 Y20.029 E2.86521
G0 F3600 X17.766 Y20.029
G1 F1800 X17.58 Y19.842 E2.87836
G1 F1500 E-3.62164
G0 F3600 X17.024 Y23.42
G0 X14.972 Y23.772
G0 X15.4 Y24.2
;TYPE:WALL-OUTER
G1 F1500 E2.87836
G1 F1800 X15.4 Y25.8 E2.95819
G1 X14.2 Y25.8 E3.01806
G1 X14.2 Y23 E3.15775
G1 X21.8 Y23 E3.53691
G1 X21.8 Y25.8 E3.67661
G1 X20.6 Y25.8 E3.73648
G1 X20.6 Y24.2 E3.8163
G1 X19.39 Y24.2 E3.87667
G1 X19.389 Y25.8 E3.95649
G1 X16.81 Y25.8 E4.08516
G1 X16.61 Y25.8 E4.09514
G1 X16.61 Y25.6 E4.1016
G1 X16.611 Y24.4 E4.16147
G1 X16.611 Y24.2 E4.17144
G1 X16.411 Y24.2 E4.1779
G1 X15.4 Y24.2 E4.22834
G0 F3600 X15.4 Y24.4
G0 X15 Y23.8
;TYPE:WALL-INNER
G1 F1800 X15 Y25.4 E4.30817
G1 X14.6 Y25.4 E4.32812
G1 X14.6 Y23.8 E4.40795
G1 X14.6 Y23.4 E4.4279
G1 X15 Y23.4 E4.44786
G1 X17.011 Y23.4 E4.54819
G1 X18.99 Y23.4 E4.64692
G1 X21 Y23.4 E4.7472
G1 X21.4 Y23.4 E4.76716
G1 X21.4 Y23.8 E4.78711
G1 X21.4 Y25.4 E4.86694
G1 X21 Y25.4 E4.88689
G1 X21 Y23.8 E4.96672
G1 X18.99 Y23.8 E5.067
G1 X18.989 Y25.4 E5.14682
G1 X17.21 Y25.4 E5.23558
G1 X17.01 Y25.4 E5.24555
G1 X17.01 Y25.2 E5.25202
G1 X17.011 Y23.8 E5.32186
G1 X15 Y23.8 E5.42219
G0 F3600 X14.93 Y23.73
G0 X17.401 Y23.79
;TYPE:SKIN
G1 F1800 X18.6 Y23.79 E5.48201
G1 X18.599 Y25.01 E5.54288
G1 X17.4 Y25.01 E5.60269
G1 X17.401 Y23.79 E5.66356
G0 F3600 X18.42 Y24.076
G1 F1800 X18.312 Y23.969 E5.67114
G0 F3600 X17.746 Y23.969
G1 F1800 X18.419 Y24.641 E5.71859
G0 F3600 X18.041 Y24.829
G1 F1800 X17.58 Y24.368 E5.75112
G1 F1500 E-0.74888
G0 F3600 X17.024 Y25.386
G0 X17.024 Y28.22
G0 X14.972 Y28.572
G0 X15.4 Y29
;TYPE:WALL-OUTER
G1 F1500 E5.75112
G1 F1800 X15.4 Y30.6 E5.83094
G1 X14.2 Y30.6 E5.89081
G1 X14.2 Y27.8 E6.0305
G1 X21.8 Y27.8 E6.40967
G1 X21.8 Y30.6 E6.54936
G1 X20.6 Y30.6 E6.60923
G1 X20.6 Y29 E6.68905
G1 X19.39 Y29 E6.74942
G1 X19.389 Y30.6 E6.82925
G1 X16.81 Y30.6 E6.95791
G1 X16.61 Y30.6 E6.96789
G1 X16.61 Y30.4 E6.97435
G1 X16.611 Y29.2 E7.03422
G1 X16.611 Y29 E7.0442
G1 X16.411 Y29 E7.05066
G1 X15.4 Y29 E7.1011
G0 F3600 X15.4 Y29.2
G0 X15 Y28.6
;TYPE:WALL-INNER
G1 F1800 X15 Y30.2 E7.18092
G1 X14.6 Y30.2 E7.20088
G1 X14.6 Y28.6 E7.2807
G1 X14.6 Y28.2 E7.30066
G1 X15 Y28.2 E7.32061
G1 X17.011 Y28.2 E7.42094
G1 X18.99 Y28.2 E7.51968
G1 X21 Y28.2 E7.61996
G1 X21.4 Y28.2 E7.63991
G1 X21.4 Y28.6 E7.65987
G1 X21.4 Y30.2 E7.73969
G1 X21 Y30.2 E7.75965
G1 X21 Y28.6 E7.83947
G1 X18.99 Y28.6 E7.93975
G1 X18.989 Y30.2 E8.01958
G1 X17.21 Y30.2 E8.10833
G1 X17.01 Y30.2 E8.11831
G1 X17.01 Y30 E8.12477
G1 X17.011 Y28.6 E8.19462
G1 X15 Y28.6 E8.29495
G0 F3600 X14.93 Y28.53
G0 X17.401 Y28.59
;TYPE:SKIN
G1 F1800 X18.6 Y28.59 E8.35476
G1 X18.599 Y29.81 E8.41563
G1 X17.4 Y29.81 E8.47545
G1 X17.401 Y28.59 E8.53631
G0 F3600 X18.42 Y29.168
G1 F1800 X18.021 Y28.769 E8.56447
G0 F3600 X17.58 Y28.894
G1 F1800 X18.315 Y29.629 E8.61632
G0 F3600 X17.749 Y29.629
G1 F1800 X17.58 Y29.459 E8.62828
G1 F1500 E2.12828
G0 F3600 X17.024 Y33.02
G0 X14.972 Y33.372
G0 X15.4 Y33.8
;TYPE:WALL-OUTER
G1 F1500 E8.62828
G1 F1800 X15.4 Y35.4 E8.70811
G1 X14.2 Y35.4 E8.76798
G1 X14.2 Y32.6 E8.90767
G1 X21.8 Y32.6 E9.28683
G1 X21.8 Y35.4 E9.42653
G1 X20.6 Y35.4 E9.48639
G1 X20.6 Y33.8 E9.56622
G1 X19.39 Y33.8 E9.62659
G1 X19.389 Y35.4 E9.70641
G1 X16.81 Y35.4 E9.83508
G1 X16.61 Y35.4 E9.84506
G1 X16.61 Y35.2 E9.85152
G1 X16.611 Y34 E9.91138
G1 X16.611 Y33.8 E9.92136
G1 X16.411 Y33.8 E9.92782
G1 X15.4 Y33.8 E9.97826
G0 F3600 X15.4 Y34
G0 X15 Y33.4
;TYPE:WALL-INNER
G1 F1800 X15 Y35 E10.05809
G1 X14.6 Y35 E10.07804
G1 X14.6 Y33.4 E10.15787
G1 X14.6 Y33 E10.17782
G1 X15 Y33 E10.19778
G1 X17.011 Y33 E10.29811
G1 X18.99 Y33 E10.39684
G1 X21 Y33 E10.49712
G1 X21.4 Y33 E10.51708
G1 X21.4 Y33.4 E10.53703
G1 X21.4 Y35 E10.61686
G1 X21 Y35 E10.63681
G1 X21 Y33.4 E10.71664
G1 X18.99 Y33.4 E10.81692
G1 X18.989 Y35 E10.89674
G1 X17.21 Y35 E10.9855
G1 X17.01 Y35 E10.99547
G1 X17.01 Y34.8 E11.00193
G1 X17.011 Y33.4 E11.07178
G1 X15 Y33.4 E11.17211
G0 F3600 X14.93 Y33.33
G0 X17.401 Y33.39
;TYPE:SKIN
G1 F1800 X18.6 Y33.39 E11.23193
G1 X18.599 Y34.61 E11.29279
G1 X17.4 Y34.61 E11.35261
G1 X17.401 Y33.39 E11.41348
G0 F3600 X18.42 Y33.693
G1 F1800 X18.295 Y33.569 E11.42226
G0 F3600 X17.729 Y33.569
G1 F1800 X18.419 Y34.258 E11.47091
G0 F3600 X18.024 Y34.429
G1 F1800 X17.58 Y33.985 E11.50224
G1 F1500 E5.00224
G0 F3600 X17.024 Y34.986
G0 X17.024 Y37.82
G0 X14.972 Y38.172
G0 X15.4 Y38.6
;TYPE:WALL-OUTER
G1 F1500 E11.50224
G1 F1800 X15.4 Y40.2 E11.58206
G1 X14.2 Y40.2 E11.64193
G1 X14.2 Y37.4 E11.78162
G1 X21.8 Y37.4 E12.16079
G1 X21.8 Y40.2 E12.30048
G1 X20.6 Y40.2 E12.36035
G1 X20.6 Y38.6 E12.44017
G1 X19.39 Y38.6 E12.50054
G1 X19.389 Y40.2 E12.58036
G1 X16.81 Y40.2 E12.70903
G1 X16.61 Y40.2 E12.71901
G1 X16.61 Y40 E12.72547
G1 X16.611 Y38.8 E12.78534
G1 X16.611 Y38.6 E12.79532
G1 X16.411 Y38.6 E12.80178
G1 X15.4 Y38.6 E12.85222
G0 F3600 X15.4 Y38.8
G0 X15 Y38.2
;TYPE:WALL-INNER
G1 F1800 X15 Y39.8 E12.93204
G1 X14.6 Y39.8 E12.952
G1 X14.6 Y38.2 E13.03182
G1 X14.6 Y37.8 E13.05178
G1 X15 Y37.8 E13.07173
G1 X17.011 Y37.8 E13.17206
G1 X18.99 Y37.8 E13.2708
G1 X21 Y37.8 E13.37107
G1 X21.4 Y37.8 E13.39103
G1 X21.4 Y38.2 E13.41099
G1 X21.4 Y39.8 E13.49081
G1 X21 Y39.8 E13.51077
G1 X21 Y38.2 E13.59059
G1 X18.99 Y38.2 E13.69087
G1 X18.989 Y39.8 E13.7707
G1 X17.21 Y39.8 E13.85945
G1 X17.01 Y39.8 E13.86943
G1 X17.01 Y39.6 E13.87589
G1 X17.011 Y38.2 E13.94574
G1 X15 Y38.2 E14.04606
G0 F3600 X14.93 Y38.13
G0 X17.401 Y38.19
;TYPE:SKIN
G1 F1800 X18.6 Y38.19 E14.10588
G1 X18.599 Y39.41 E14.16675
G1 X17.4 Y39.41 E14.22657
G1 X17.401 Y38.19 E14.28743
G0 F3600 X18.42 Y38.784
G1 F1800 X18.005 Y38.369 E14.31671
G0 F3600 X17.58 Y38.51
G1 F1800 X18.298 Y39.228 E14.36737
G0 F3600 X17.732 Y39.228
G1 F1800 X17.58 Y39.076 E14.3781
G1 F1500 E7.8781
G0 F3600 X17.039 Y38.172
G0 X14.972 Y38.172
G0 X12.542 Y38.255
G0 X11.964 Y39.351
;TYPE:WALL-OUTER
G1 F1500 E14.3781
G1 F1800 X11.6 Y39.399 E14.39641
G1 X11.236 Y39.351 E14.41473
G1 X10.9 Y39.212 E14.43287
G1 X10.611 Y38.989 E14.45108
G1 X10.388 Y38.7 E14.4693
G1 X10.249 Y38.364 E14.48744
G1 X10.201 Y38 E14.50575
G1 X10.249 Y37.636 E14.52407
G1 X10.388 Y37.3 E14.54221
G1 X10.611 Y37.011 E14.56042
G1 X10.9 Y36.788 E14.57864
G1 X11.236 Y36.649 E14.59678
G1 X11.6 Y36.601 E14.61509
G1 X11.964 Y36.649 E14.63341
G1 X12.3 Y36.788 E14.65155
G1 X12.589 Y37.011 E14.66976
G1 X12.812 Y37.3 E14.68797
G1 X12.951 Y37.636 E14.70612
G1 X12.999 Y38 E14.72443
G1 X12.951 Y38.364 E14.74275
G1 X12.812 Y38.7 E14.76089
G1 X12.589 Y38.989 E14.7791
G1 X12.3 Y39.212 E14.79731
G1 X11.964 Y39.351 E14.81546
G0 F3600 X11.766 Y39.377
G0 X11.86 Y38.961
;TYPE:WALL-INNER
G1 F1800 X11.6 Y38.995 E14.82854
G1 X11.34 Y38.961 E14.84162
G1 X11.101 Y38.862 E14.85453
G1 X10.896 Y38.704 E14.86744
G1 X10.738 Y38.499 E14.88035
G1 X10.639 Y38.26 E14.89326
G1 X10.605 Y38 E14.90634
G1 X10.639 Y37.74 E14.91942
G1 X10.738 Y37.501 E14.93233
G1 X10.896 Y37.296 E14.94524
G1 X11.101 Y37.138 E14.95815
G1 X11.34 Y37.039 E14.97106
G1 X11.6 Y37.005 E14.98414
G1 X11.86 Y37.039 E14.99722
G1 X12.099 Y37.138 E15.01013
G1 X12.304 Y37.296 E15.02304
G1 X12.462 Y37.501 E15.03595
G1 X12.561 Y37.74 E15.04886
G1 X12.595 Y38 E15.06194
G1 X12.561 Y38.26 E15.07502
G1 X12.462 Y38.499 E15.08793
G1 X12.304 Y38.704 E15.10084
G1 X12.099 Y38.862 E15.11376
G1 X11.86 Y38.961 E15.12666
G0 F3600 X11.904 Y38.521
;TYPE:SKIN
G1 F1800 X11.6 Y38.603 E15.14237
G1 X11.296 Y38.521 E15.15808
G1 X11.079 Y38.304 E15.17339
G1 X10.997 Y38 E15.1891
G1 X11.079 Y37.696 E15.20481
G1 X11.296 Y37.479 E15.22012
G1 X11.6 Y37.397 E15.23583
G1 X11.904 Y37.479 E15.25153
G1 X12.121 Y37.696 E15.26685
G1 X12.203 Y38 E15.28255
G1 X12.121 Y38.304 E15.29826
G1 X11.904 Y38.521 E15.31357
G0 F3600 X11.779 Y38.366
G1 F1800 X11.231 Y37.818 E15.35224
G0 F3600 X11.568 Y37.59
G1 F1800 X12.009 Y38.031 E15.38335
G1 F1500 E8.88335
G0 F3600 X11.6 Y38.975
G0 X11.684 Y40.26
G0 X11.6 Y41.825
G0 X11.835 Y43.665
G0 X11.964 Y44.151
;TYPE:WALL-OUTER
G1 F1500 E15.38335
G1 F1800 X11.6 Y44.199 E15.40167
G1 X11.236 Y44.151 E15.41999
G1 X10.9 Y44.012 E15.43813
G1 X10.611 Y43.789 E15.45634
G1 X10.388 Y43.5 E15.47455
G1 X10.249 Y43.164 E15.49269
G1 X10.201 Y42.8 E15.51101
G1 X10.249 Y42.436 E15.52933
G1 X10.388 Y42.1 E15.54747
G1 X10.611 Y41.811 E15.56568
G1 X10.9 Y41.588 E15.58389
G1 X11.236 Y41.449 E15.60203
G1 X11.6 Y41.401 E15.62035
G1 X11.964 Y41.449 E15.63867
G1 X12.3 Y41.588 E15.65681
G1 X12.589 Y41.811 E15.67502
G1 X12.812 Y42.1 E15.69323
G1 X12.951 Y42.436 E15.71137
G1 X12.999 Y42.8 E15.72969
G1 X12.951 Y43.164 E15.74801
G1 X12.812 Y43.5 E15.76615
G1 X12.589 Y43.789 E15.78436
G1 X12.3 Y44.012 E15.80257
G1 X11.964 Y44.151 E15.82071
G0 F3600 X11.766 Y44.177
G0 X11.86 Y43.761
;TYPE:WALL-INNER
G1 F1800 X11.6 Y43.795 E15.83379
G1 X11.34 Y43.761 E15.84687
G1 X11.101 Y43.662 E15.85978
G1 X10.896 Y43.504 E15.87269
G1 X10.738 Y43.299 E15.88561
G1 X10.639 Y43.06 E15.89851
G1 X10.605 Y42.8 E15.91159
G1 X10.639 Y42.54 E15.92468
G1 X10.738 Y42.301 E15.93758
G1 X10.896 Y42.096 E15.9505
G1 X11.101 Y41.938 E15.96341
G1 X11.34 Y41.839 E15.97631
G1 X11.6 Y41.805 E15.9894
G1 X11.86 Y41.839 E16.00248
G1 X12.099 Y41.938 E16.01538
G1 X12.304 Y42.096 E16.0283
G1 X12.462 Y42.301 E16.04121
G1 X12.561 Y42.54 E16.05412
G1 X12.595 Y42.8 E16.0672
G1 X12.561 Y43.06 E16.08028
G1 X12.462 Y43.299 E16.09319
G1 X12.304 Y43.504 E16.1061
G1 X12.099 Y43.662 E16.11901
G1 X11.86 Y43.761 E16.13192
G0 F3600 X11.904 Y43.321
;TYPE:SKIN
G1 F1800 X11.6 Y43.403 E16.14763
G1 X11.296 Y43.321 E16.16333
G1 X11.079 Y43.104 E16.17865
G1 X10.997 Y42.8 E16.19435
G1 X11.079 Y42.496 E16.21006
G1 X11.296 Y42.279 E16.22537
G1 X11.6 Y42.197 E16.24108
G1 X11.904 Y42.279 E16.25679
G1 X12.121 Y42.496 E16.2721
G1 X12.203 Y42.8 E16.28781
G1 X12.121 Y43.104 E16.30352
G1 X11.904 Y43.321 E16.31883
G0 F3600 X11.514 Y43.192
G1 F1800 X11.205 Y42.883 E16.34063
G0 F3600 X11.357 Y42.47
G1 F1800 X11.928 Y43.041 E16.38092
G1 X11.956 Y43.069
G1 F1500 E9.88092
G0 F3600 X14.62 Y43.055
G0 X15.4 Y43.4
;TYPE:WALL-OUTER
G1 F1500 E16.38092
G1 F1800 X15.4 Y45 E16.46074
G1 X14.2 Y45 E16.52061
G1 X14.2 Y42.2 E16.6603
G1 X21.8 Y42.2 E17.03947
G1 X21.8 Y45 E17.17916
G1 X20.6 Y45 E17.23903
G1 X20.6 Y43.4 E17.31885
G1 X19.39 Y43.4 E17.37922
G1 X19.389 Y45 E17.45905
G1 X16.81 Y45 E17.58771
G1 X16.61 Y45 E17.59769
G1 X16.61 Y44.8 E17.60415
G1 X16.611 Y43.6 E17.66402
G1 X16.611 Y43.4 E17.674
G1 X16.411 Y43.4 E17.68046
G1 X15.4 Y43.4 E17.7309
G0 F3600 X15.4 Y43.6
G0 X15 Y43
;TYPE:WALL-INNER
G1 F1800 X15 Y44.6 E17.81072
G1 X14.6 Y44.6 E17.83068
G1 X14.6 Y43 E17.9105
G1 X14.6 Y42.6 E17.93046
G1 X15 Y42.6 E17.95041
G1 X17.011 Y42.6 E18.05074
G1 X18.99 Y42.6 E18.14948
G1 X21 Y42.6 E18.24975
G1 X21.4 Y42.6 E18.26971
G1 X21.4 Y43 E18.28967
G1 X21.4 Y44.6 E18.36949
G1 X21 Y44.6 E18.38945
G1 X21 Y43 E18.46927
G1 X18.99 Y43 E18.56955
G1 X18.989 Y44.6 E18.64938
G1 X17.21 Y44.6 E18.73813
G1 X17.01 Y44.6 E18.74811
G1 X17.01 Y44.4 E18.75457
G1 X17.011 Y43 E18.82442
G1 X15 Y43 E18.92474
G0 F3600 X14.93 Y42.93
G0 X17.401 Y42.99
;TYPE:SKIN
G1 F1800 X18.6 Y42.99 E18.98456
G1 X18.599 Y44.21 E19.04543
G1 X17.4 Y44.21 E19.10525
G1 X17.401 Y42.99 E19.16611
G0 F3600 X18.42 Y43.31
G1 F1800 X18.279 Y43.169 E19.17606
G0 F3600 X17.713 Y43.169
G1 F1800 X18.42 Y43.875 E19.22591
G0 F3600 X18.007 Y44.028
G1 F1800 X17.58 Y43.601 E19.25604
G1 F1500 E12.75604
G0 F3600 X17.024 Y44.586
G0 X17.024 Y47.42
G0 X14.972 Y47.772
G0 X15.4 Y48.2
;TYPE:WALL-OUTER
G1 F1500 E19.25604
G1 F1800 X15.4 Y49.8 E19.33586
G1 X14.2 Y49.8 E19.39573
G1 X14.2 Y47 E19.53542
G1 X21.8 Y47 E19.91459
G1 X21.8 Y49.8 E20.05428
G1 X20.6 Y49.8 E20.11415
G1 X20.6 Y48.2 E20.19397
G1 X19.39 Y48.2 E20.25434
G1 X19.389 Y49.8 E20.33416
G1 X16.81 Y49.8 E20.46283
G1 X16.61 Y49.8 E20.47281
G1 X16.61 Y49.6 E20.47927
G1 X16.611 Y48.4 E20.53914
G1 X16.611 Y48.2 E20.54912
G1 X16.411 Y48.2 E20.55558
G1 X15.4 Y48.2 E20.60602
G0 F3600 X15.4 Y48.4
G0 X15 Y47.8
;TYPE:WALL-INNER
G1 F1800 X15 Y49.4 E20.68584
G1 X14.6 Y49.4 E20.7058
G1 X14.6 Y47.8 E20.78562
G1 X14.6 Y47.4 E20.80558
G1 X15 Y47.4 E20.82553
G1 X17.011 Y47.4 E20.92586
G1 X18.99 Y47.4 E21.02459
G1 X21 Y47.4 E21.12487
G1 X21.4 Y47.4 E21.14483
G1 X21.4 Y47.8 E21.16479
G1 X21.4 Y49.4 E21.24461
G1 X21 Y49.4 E21.26457
G1 X21 Y47.8 E21.34439
G1 X18.99 Y47.8 E21.44467
G1 X18.989 Y49.4 E21.52449
G1 X17.21 Y49.4 E21.61325
G1 X17.01 Y49.4 E21.62323
G1 X17.01 Y49.2 E21.62969
G1 X17.011 Y47.8 E21.69953
G1 X15 Y47.8 E21.79986
G0 F3600 X14.93 Y47.73
G0 X17.401 Y47.79
;TYPE:SKIN
G1 F1800 X18.6 Y47.79 E21.85968
G1 X18.599 Y49.01 E21.92055
G1 X17.4 Y49.01 E21.98037
G1 X17.401 Y47.79 E22.04123
G0 F3600 X18.419 Y48.4
G1 F1800 X17.988 Y47.969 E22.07164
G0 F3600 X17.58 Y48.127
G1 F1800 X18.282 Y48.829 E22.12117
G0 F3600 X17.716 Y48.829
G1 F1800 X17.579 Y48.692 E22.13084
G1 F1500 E15.63084
G0 F3600 X17.039 Y47.772
G0 X14.972 Y47.772
G0 X12.542 Y47.855
G0 X11.964 Y48.951
;TYPE:WALL-OUTER
G1 F1500 E22.13084
G1 F1800 X11.6 Y48.999 E22.14915
G1 X11.236 Y48.951 E22.16747
G1 X10.9 Y48.812 E22.18561
G1 X10.611 Y48.589 E22.20382
G1 X10.388 Y48.3 E22.22204
G1 X10.249 Y47.964 E22.24018
G1 X10.201 Y47.6 E22.25849
G1 X10.249 Y47.236 E22.27681
G1 X10.388 Y46.9 E22.29495
G1 X10.611 Y46.611 E22.31316
G1 X10.9 Y46.388 E22.33138
G1 X11.236 Y46.249 E22.34952
G1 X11.6 Y46.201 E22.36783
G1 X11.964 Y46.249 E22.38615
G1 X12.3 Y46.388 E22.40429
G1 X12.589 Y46.611 E22.4225
G1 X12.812 Y46.9 E22.44071
G1 X12.951 Y47.236 E22.45886
G1 X12.999 Y47.6 E22.47717
G1 X12.951 Y47.964 E22.49549
G1 X12.812 Y48.3 E22.51363
G1 X12.589 Y48.589 E22.53184
G1 X12.3 Y48.812 E22.55005
G1 X11.964 Y48.951 E22.5682
G0 F3600 X11.766 Y48.977
G0 X11.86 Y48.561
;TYPE:WALL-INNER
G1 F1800 X11.6 Y48.595 E22.58128
G1 X11.34 Y48.561 E22.59436
G1 X11.101 Y48.462 E22.60727
G1 X10.896 Y48.304 E22.62018
G1 X10.738 Y48.099 E22.63309
G1 X10.639 Y47.86 E22.646
G1 X10.605 Y47.6 E22.65908
G1 X10.639 Y47.34 E22.67216
G1 X10.738 Y47.101 E22.68507
G1 X10.896 Y46.896 E22.69798
G1 X11.101 Y46.738 E22.71089
G1 X11.34 Y46.639 E22.7238
G1 X11.6 Y46.605 E22.73688
G1 X11.86 Y46.639 E22.74996
G1 X12.099 Y46.738 E22.76287
G1 X12.304 Y46.896 E22.77578
G1 X12.462 Y47.101 E22.78869
G1 X12.561 Y47.34 E22.8016
G1 X12.595 Y47.6 E22.81468
G1 X12.561 Y47.86 E22.82776
G1 X12.462 Y48.099 E22.84067
G1 X12.304 Y48.304 E22.85358
G1 X12.099 Y48.462 E22.8665
G1 X11.86 Y48.561 E22.8794
G0 F3600 X11.904 Y48.121
;TYPE:SKIN
G1 F1800 X11.6 Y48.203 E22.89511
G1 X11.296 Y48.121 E22.91082
G1 X11.079 Y47.904 E22.92613
G1 X10.997 Y47.6 E22.94184
