;FLAVOR:Marlin
;TIME:6666
;Filament used: 0m
;Layer height: 0.1
;MINX:2.14748e+06
;MINY:2.14748e+06
;MINZ:2.14748e+06
;MAXX:-2.14748e+06
;MAXY:-2.14748e+06
;MAXZ:-2.14748e+06

;Generated with Cura_SteamEngine master
M104 S200
M105
M109 S200
M82 ;absolute extrusion mode
G28 ;Home
G1 Z15.0 F6000 ;Move the platform down 15mm
;Prime the extruder
G92 E0
G1 F200 E3
G92 E0
G92 E0
G92 E0
G1 F1500 E-6.5
;LAYER_COUNT:318
;LAYER:0
M107
;MESH:3707.stl
G0 F3600 X50.6 Y50.6 Z0.3
;TYPE:WALL-OUTER
G1 F1500 E0
G1 F600 X50.6 Y52.077 E0.07369
G1 X50 Y52.196 E0.10421
G1 X49.4 Y52.077 E0.13472
G1 X49.4 Y50.6 E0.20841
G1 X47.923 Y50.6 E0.2821
G1 X47.804 Y50 E0.31262
G1 X47.923 Y49.4 E0.34313
G1 X49.4 Y49.4 E0.41682
G1 X49.4 Y47.923 E0.49051
G1 X50 Y47.804 E0.52103
G1 X50.6 Y47.923 E0.55154
G1 X50.6 Y49.4 E0.62523
G1 X52.077 Y49.4 E0.69892
G1 X52.196 Y50 E0.72944
G1 X52.077 Y50.6 E0.75995
G1 X50.6 Y50.6 E0.83364
G0 F3600 X50.6 Y50.8
G0 X50.2 Y50.2
M104 S195
;TYPE:WALL-INNER
G1 F600 X50.2 Y51.749 E0.91092
G1 X50 Y51.789 E0.9211
G1 X49.8 Y51.749 E0.93127
G1 X49.8 Y50.2 E1.00855
G1 X48.251 Y50.2 E1.08583
G1 X48.211 Y50 E1.09601
G1 X48.251 Y49.8 E1.10618
G1 X49.8 Y49.8 E1.18346
G1 X49.8 Y48.251 E1.26074
G1 X50 Y48.211 E1.27092
G1 X50.2 Y48.251 E1.28109
G1 X50.2 Y49.8 E1.35837
G1 X51.749 Y49.8 E1.43565
G1 X51.789 Y50 E1.44583
G1 X51.749 Y50.2 E1.456
G1 X50.2 Y50.2 E1.53328
G0 F3600 X50.082 Y50.082
;MESH:NONMESH
G0 F600 X50.082 Y50.082 Z0.4
G0 F3600 X50.2 Y50.2
;TIME_ELAPSED:6.308379
;LAYER:1
M106 S255
;TYPE:WALL-INNER
;MESH:3707.stl
G1 F900 X50.2 Y51.749 E1.55904
G1 X50 Y51.789 E1.56244
G1 X49.8 Y51.749 E1.56583
G1 X49.8 Y50.2 E1.59159
G1 X48.251 Y50.2 E1.61735
G1 X48.211 Y50 E1.62074
G1 X48.251 Y49.8 E1.62413
G1 X49.8 Y49.8 E1.64989
G1 X49.8 Y48.251 E1.67565
G1 X50 Y48.211 E1.67904
G1 X50.2 Y48.251 E1.68244
G1 X50.2 Y49.8 E1.7082
G1 X51.749 Y49.8 E1.73396
G1 X51.789 Y50 E1.73735
G1 X51.749 Y50.2 E1.74074
G1 X50.2 Y50.2 E1.7665
G0 F5400 X50.6 Y50.6
;TYPE:WALL-OUTER
G1 F600 X50.6 Y52.077 E1.79106
G1 X50 Y52.196 E1.80123
G1 X49.4 Y52.077 E1.81141
G1 X49.4 Y50.6 E1.83597
G1 X47.923 Y50.6 E1.86053
G1 X47.804 Y50 E1.8707
G1 X47.923 Y49.4 E1.88088
G1 X49.4 Y49.4 E1.90544
G1 X49.4 Y47.923 E1.93
G1 X50 Y47.804 E1.94017
G1 X50.6 Y47.923 E1.95035
G1 X50.6 Y49.4 E1.97491
G1 X52.077 Y49.4 E1.99947
G1 X52.196 Y50 E2.00964
G1 X52.077 Y50.6 E2.01982
G1 X50.6 Y50.6 E2.04438
G0 F5400 X50.6 Y50.8
;MESH:NONMESH
G0 F600 X50.6 Y50.8 Z0.5
G0 F5400 X50.2 Y50.2
;TIME_ELAPSED:9.014577
;LAYER:2
;TYPE:WALL-INNER
;MESH:3707.stl
G1 F1200 X50.2 Y51.749 E2.07014
G1 X50 Y51.789 E2.07353
G1 X49.8 Y51.749 E2.07692
G1 X49.8 Y50.2 E2.10268
G1 X48.251 Y50.2 E2.12844
G1 X48.211 Y50 E2.13184
G1 X48.251 Y49.8 E2.13523
G1 X49.8 Y49.8 E2.16099
G1 X49.8 Y48.251 E2.18675
G1 X50 Y48.211 E2.19014
G1 X50.2 Y48.251 E2.19353
G1 X50.2 Y49.8 E2.21929
G1 X51.749 Y49.8 E2.24505
G1 X51.789 Y50 E2.24844
G1 X51.749 Y50.2 E2.25183
G1 X50.2 Y50.2 E2.27759
G0 F7200 X50.6 Y50.6
;TYPE:WALL-OUTER
G1 F600 X50.6 Y52.077 E2.30216
G1 X50 Y52.196 E2.31233
G1 X49.4 Y52.077 E2.3225
G1 X49.4 Y50.6 E2.34706
G1 X47.923 Y50.6 E2.37163
G1 X47.804 Y50 E2.3818
G1 X47.923 Y49.4 E2.39197
G1 X49.4 Y49.4 E2.41653
G1 X49.4 Y47.923 E2.4411
G1 X50 Y47.804 E2.45127
G1 X50.6 Y47.923 E2.46144
G1 X50.6 Y49.4 E2.486
G1 X52.077 Y49.4 E2.51057
G1 X52.196 Y50 E2.52074
G1 X52.077 Y50.6 E2.53091
G1 X50.6 Y50.6 E2.55547
G0 F7200 X50.6 Y50.8
;MESH:NONMESH
G0 F600 X50.6 Y50.8 Z0.6
G0 F7200 X50.2 Y50.2
;TIME_ELAPSED:11.489650
;LAYER:3
;TYPE:WALL-INNER
;MESH:3707.stl
G1 F1200 X50.2 Y51.749 E2.58123
G1 X50 Y51.789 E2.58463
G1 X49.8 Y51.749 E2.58802
G1 X49.8 Y50.2 E2.61378
G1 X48.251 Y50.2 E2.63954
G1 X48.211 Y50 E2.64293
G1 X48.251 Y49.8 E2.64632
G1 X49.8 Y49.8 E2.67208
G1 X49.8 Y48.251 E2.69784
G1 X50 Y48.211 E2.70123
G1 X50.2 Y48.251 E2.70463
G1 X50.2 Y49.8 E2.73039
G1 X51.749 Y49.8 E2.75615
G1 X51.789 Y50 E2.75954
G1 X51.749 Y50.2 E2.76293
G1 X50.2 Y50.2 E2.78869
G0 F7200 X50.6 Y50.6
;TYPE:WALL-OUTER
G1 F600 X50.6 Y52.077 E2.81325
G1 X50 Y52.196 E2.82342
G1 X49.4 Y52.077 E2.8336
G1 X49.4 Y50.6 E2.85816
G1 X47.923 Y50.6 E2.88272
G1 X47.804 Y50 E2.89289
G1 X47.923 Y49.4 E2.90307
G1 X49.4 Y49.4 E2.92763
G1 X49.4 Y47.923 E2.95219
G1 X50 Y47.804 E2.96236
G1 X50.6 Y47.923 E2.97254
G1 X50.6 Y49.4 E2.9971
G1 X52.077 Y49.4 E3.02166
G1 X52.196 Y50 E3.03183
G1 X52.077 Y50.6 E3.04201
G1 X50.6 Y50.6 E3.06657
G0 F7200 X50.6 Y50.8
;MESH:NONMESH
G0 F600 X50.6 Y50.8 Z0.7
G0 F7200 X50.2 Y50.2
;TIME_ELAPSED:13.964723
;LAYER:4
;TYPE:WALL-INNER
;MESH:3707.stl
G1 F1200 X50.2 Y51.749 E3.09233
G1 X50 Y51.789 E3.09572
G1 X49.8 Y51.749 E3.09911
G1 X49.8 Y50.2 E3.12487
G1 X48.251 Y50.2 E3.15063
G1 X48.211 Y50 E3.15402
G1 X48.251 Y49.8 E3.15742
G1 X49.8 Y49.8 E3.18318
G1 X49.8 Y48.251 E3.20894
G1 X50 Y48.211 E3.21233
G1 X50.2 Y48.251 E3.21572
G1 X50.2 Y49.8 E3.24148
G1 X51.749 Y49.8 E3.26724
G1 X51.789 Y50 E3.27063
G1 X51.749 Y50.2 E3.27402
G1 X50.2 Y50.2 E3.29978
G0 F7200 X50.6 Y50.6
;TYPE:WALL-OUTER
G1 F600 X50.6 Y52.077 E3.32435
G1 X50 Y52.196 E3.33452
G1 X49.4 Y52.077 E3.34469
G1 X49.4 Y50.6 E3.36925
G1 X47.923 Y50.6 E3.39382
G1 X47.804 Y50 E3.40399
G1 X47.923 Y49.4 E3.41416
G1 X49.4 Y49.4 E3.43872
G1 X49.4 Y47.923 E3.46329
G1 X50 Y47.804 E3.47346
G1 X50.6 Y47.923 E3.48363
G1 X50.6 Y49.4 E3.50819
G1 X52.077 Y49.4 E3.53276
G1 X52.196 Y50 E3.54293
G1 X52.077 Y50.6 E3.5531
G1 X50.6 Y50.6 E3.57766
G0 F7200 X50.6 Y50.8
;MESH:NONMESH
G0 F600 X50.6 Y50.8 Z0.8
G0 F7200 X50.2 Y50.2
;TIME_ELAPSED:16.439796
;LAYER:5
;TYPE:WALL-INNER
;MESH:3707.stl
G1 F1200 X50.2 Y51.749 E3.60342
G1 X50 Y51.789 E3.60682
G1 X49.8 Y51.749 E3.61021
G1 X49.8 Y50.2 E3.63597
G1 X48.251 Y50.2 E3.66173
G1 X48.211 Y50 E3.66512
G1 X48.251 Y49.8 E3.66851
G1 X49.8 Y49.8 E3.69427
G1 X49.8 Y48.251 E3.72003
G1 X50 Y48.211 E3.72342
G1 X50.2 Y48.251 E3.72682
G1 X50.2 Y49.8 E3.75258
G1 X51.749 Y49.8 E3.77834
G1 X51.789 Y50 E3.78173
G1 X51.749 Y50.2 E3.78512
G1 X50.2 Y50.2 E3.81088
G0 F7200 X50.6 Y50.6
;TYPE:WALL-OUTER
G1 F600 X50.6 Y52.077 E3.83544
G1 X50 Y52.196 E3.84561
G1 X49.4 Y52.077 E3.85579
G1 X49.4 Y50.6 E3.88035
G1 X47.923 Y50.6 E3.90491
G1 X47.804 Y50 E3.91508
G1 X47.923 Y49.4 E3.92526
G1 X49.4 Y49.4 E3.94982
G1 X49.4 Y47.923 E3.97438
G1 X50 Y47.804 E3.98455
G1 X50.6 Y47.923 E3.99473
G1 X50.6 Y49.4 E4.01929
G1 X52.077 Y49.4 E4.04385
G1 X52.196 Y50 E4.05402
G1 X52.077 Y50.6 E4.0642
G1 X50.6 Y50.6 E4.08876
G0 F7200 X50.6 Y50.8
;MESH:NONMESH
G0 F600 X50.6 Y50.8 Z0.9
G0 F7200 X50.2 Y50.2
;TIME_ELAPSED:18.914869
;LAYER:6
;TYPE:WALL-INNER
;MESH:3707.stl
G1 F1200 X50.2 Y51.749 E4.11452
G1 X50 Y51.789 E4.11791
G1 X49.8 Y51.749 E4.1213
G1 X49.8 Y50.2 E4.14706
G1 X48.251 Y50.2 E4.17282
G1 X48.211 Y50 E4.17621
G1 X48.251 Y49.8 E4.17961
G1 X49.8 Y49.8 E4.20537
G1 X49.8 Y48.251 E4.23113
G1 X50 Y48.211 E4.23452
G1 X50.2 Y48.251 E4.23791
G1 X50.2 Y49.8 E4.26367
G1 X51.749 Y49.8 E4.28943
G1 X51.789 Y50 E4.29282
G1 X51.749 Y50.2 E4.29621
G1 X50.2 Y50.2 E4.32197
G0 F7200 X50.6 Y50.6
;TYPE:WALL-OUTER
G1 F600 X50.6 Y52.077 E4.34654
G1 X50 Y52.196 E4.35671
G1 X49.4 Y52.077 E4.36688
G1 X49.4 Y50.6 E4.39144
G1 X47.923 Y50.6 E4.41601
G1 X47.804 Y50 E4.42618
G1 X47.923 Y49.4 E4.43635
G1 X49.4 Y49.4 E4.46091
G1 X49.4 Y47.923 E4.48548
G1 X50 Y47.804 E4.49565
G1 X50.6 Y47.923 E4.50582
G1 X50.6 Y49.4 E4.53038
G1 X52.077 Y49.4 E4.55495
G1 X52.196 Y50 E4.56512
G1 X52.077 Y50.6 E4.57529
G1 X50.6 Y50.6 E4.59985
G0 F7200 X50.6 Y50.8
;MESH:NONMESH
G0 F600 X50.6 Y50.8 Z1
G0 F7200 X50.2 Y50.2
;TIME_ELAPSED:21.389942
;LAYER:7
;TYPE:WALL-INNER
;MESH:3707.stl
G1 F1200 X50.2 Y51.749 E4.62561
G1 X50 Y51.789 E4.62901
G1 X49.8 Y51.749 E4.6324
G1 X49.8 Y50.2 E4.65816
G1 X48.251 Y50.2 E4.68392
G1 X48.211 Y50 E4.68731
G1 X48.251 Y49.8 E4.6907
G1 X49.8 Y49.8 E4.71646
G1 X49.8 Y48.251 E4.74222
G1 X50 Y48.211 E4.74561
G1 X50.2 Y48.251 E4.74901
G1 X50.2 Y49.8 E4.77477
G1 X51.749 Y49.8 E4.80053
G1 X51.789 Y50 E4.80392
G1 X51.749 Y50.2 E4.80731
G1 X50.2 Y50.2 E4.83307
G0 F7200 X50.6 Y50.6
;TYPE:WALL-OUTER
G1 F600 X50.6 Y52.077 E4.85763
G1 X50 Y52.196 E4.8678
G1 X49.4 Y52.077 E4.87798
G1 X49.4 Y50.6 E4.90254
G1 X47.923 Y50.6 E4.9271
G1 X47.804 Y50 E4.93727
G1 X47.923 Y49.4 E4.94745
G1 X49.4 Y49.4 E4.97201
G1 X49.4 Y47.923 E4.99657
G1 X50 Y47.804 E5.00674
G1 X50.6 Y47.923 E5.01692
G1 X50.6 Y49.4 E5.04148
G1 X52.077 Y49.4 E5.06604
G1 X52.196 Y50 E5.07621
G1 X52.077 Y50.6 E5.08639
G1 X50.6 Y50.6 E5.11095
G0 F7200 X50.6 Y50.8
;MESH:NONMESH
G0 F600 X50.6 Y50.8 Z1.1
G0 F7200 X50.2 Y50.2
;TIME_ELAPSED:23.865015
;LAYER:8
;TYPE:WALL-INNER
;MESH:3707.stl
G1 F1200 X50.2 Y51.749 E5.13671
G1 X50 Y51.789 E5.1401
G1 X49.8 Y51.749 E5.14349
G1 X49.8 Y50.2 E5.16925
G1 X48.251 Y50.2 E5.19501
G1 X48.211 Y50 E5.1984
G1 X48.251 Y49.8 E5.2018
G1 X49.8 Y49.8 E5.22756
G1 X49.8 Y48.251 E5.25332
G1 X50 Y48.211 E5.25671
G1 X50.2 Y48.251 E5.2601
G1 X50.2 Y49.8 E5.28586
G1 X51.749 Y49.8 E5.31162
G1 X51.789 Y50 E5.31501
G1 X51.749 Y50.2 E5.3184
G1 X50.2 Y50.2 E5.34416
G0 F7200 X50.6 Y50.6
;TYPE:WALL-OUTER
G1 F600 X50.6 Y52.077 E5.36873
G1 X50 Y52.196 E5.3789
G1 X49.4 Y52.077 E5.38907
G1 X49.4 Y50.6 E5.41363
G1 X47.923 Y50.6 E5.4382
G1 X47.804 Y50 E5.44837
G1 X47.923 Y49.4 E5.45854
G1 X49.4 Y49.4 E5.4831
G1 X49.4 Y47.923 E5.50767
G1 X50 Y47.804 E5.51784
G1 X50.6 Y47.923 E5.52801
G1 X50.6 Y49.4 E5.55257
G1 X52.077 Y49.4 E5.57714
G1 X52.196 Y50 E5.58731
G1 X52.077 Y50.6 E5.59748
G1 X50.6 Y50.6 E5.62204
G0 F7200 X50.6 Y50.8
;MESH:NONMESH
G0 F600 X50.6 Y50.8 Z1.2
G0 F7200 X50.2 Y50.2
;TIME_ELAPSED:26.340089
;LAYER:9
;TYPE:WALL-INNER
;MESH:3707.stl
G1 F1200 X50.2 Y51.749 E5.6478
G1 X50 Y51.789 E5.6512
G1 X49.8 Y51.749 E5.65459
G1 X49.8 Y50.2 E5.68035
G1 X48.251 Y50.2 E5.70611
G1 X48.211 Y50 E5.7095
G1 X48.251 Y49.8 E5.71289
G1 X49.8 Y49.8 E5.73865
G1 X49.8 Y48.251 E5.76441
G1 X50 Y48.211 E5.7678
G1 X50.2 Y48.251 E5.7712
G1 X50.2 Y49.8 E5.79696
G1 X51.749 Y49.8 E5.82271
G1 X51.789 Y50 E5.82611
G1 X51.749 Y50.2 E5.8295
G1 X50.2 Y50.2 E5.85526
G0 F7200 X50.6 Y50.6
;TYPE:WALL-OUTER
G1 F600 X50.6 Y52.077 E5.87982
G1 X50 Y52.196 E5.88999
G1 X49.4 Y52.077 E5.90017
G1 X49.4 Y50.6 E5.92473
G1 X47.923 Y50.6 E5.94929
G1 X47.804 Y50 E5.95946
G1 X47.923 Y49.4 E5.96964
G1 X49.4 Y49.4 E5.9942
G1 X49.4 Y47.923 E6.01876
G1 X50 Y47.804 E6.02893
G1 X50.6 Y47.923 E6.03911
G1 X50.6 Y49.4 E6.06367
G1 X52.077 Y49.4 E6.08823
G1 X52.196 Y50 E6.0984
G1 X52.077 Y50.6 E6.10858
G1 X50.6 Y50.6 E6.13314
G0 F7200 X50.6 Y50.8
;MESH:NONMESH
G0 F600 X50.6 Y50.8 Z1.3
G0 F7200 X50.2 Y50.2
;TIME_ELAPSED:28.815162
;LAYER:10
;TYPE:WALL-INNER
;MESH:3707.stl
G1 F1200 X50.2 Y51.749 E6.1589
G1 X50 Y51.789 E6.16229
G1 X49.8 Y51.749 E6.16568
G1 X49.8 Y50.2 E6.19144
G1 X48.251 Y50.2 E6.2172
G1 X48.211 Y50 E6.22059
G1 X48.251 Y49.8 E6.22399
G1 X49.8 Y49.8 E6.24975
G1 X49.8 Y48.251 E6.27551
G1 X50 Y48.211 E6.2789
G1 X50.2 Y48.251 E6.28229
G1 X50.2 Y49.8 E6.30805
G1 X51.749 Y49.8 E6.33381
G1 X51.789 Y50 E6.3372
G1 X51.749 Y50.2 E6.34059
G1 X50.2 Y50.2 E6.36635
G0 F7200 X50.6 Y50.6
;TYPE:WALL-OUTER
G1 F600 X50.6 Y52.077 E6.39092
G1 X50 Y52.196 E6.40109
G1 X49.4 Y52.077 E6.41126
G1 X49.4 Y50.6 E6.43582
G1 X47.923 Y50.6 E6.46039
G1 X47.804 Y50 E6.47056
G1 X47.923 Y49.4 E6.48073
G1 X49.4 Y49.4 E6.50529
G1 X49.4 Y47.923 E6.52986
G1 X50 Y47.804 E6.54003
G1 X50.6 Y47.923 E6.5502
G1 X50.6 Y49.4 E6.57476
G1 X52.077 Y49.4 E6.59933
G1 X52.196 Y50 E6.6095
G1 X52.077 Y50.6 E6.61967
G1 X50.6 Y50.6 E6.64423
G0 F7200 X50.6 Y50.8
;MESH:NONMESH
G0 F600 X50.6 Y50.8 Z1.4
G0 F7200 X50.2 Y50.2
;TIME_ELAPSED:31.290235
;LAYER:11
;TYPE:WALL-INNER
;MESH:3707.stl
G1 F1200 X50.2 Y51.749 E6.66999
G1 X50 Y51.789 E6.67339
G1 X49.8 Y51.749 E6.67678
G1 X49.8 Y50.2 E6.70254
G1 X48.251 Y50.2 E6.7283
G1 X48.211 Y50 E6.73169
G1 X48.251 Y49.8 E6.73508
G1 X49.8 Y49.8 E6.76084
G1 X49.8 Y48.251 E6.7866
G1 X50 Y48.211 E6.78999
G1 X50.2 Y48.251 E6.79338
G1 X50.2 Y49.8 E6.81914
G1 X51.749 Y49.8 E6.8449
G1 X51.789 Y50 E6.8483
G1 X51.749 Y50.2 E6.85169
G1 X50.2 Y50.2 E6.87745
G0 F7200 X50.6 Y50.6
;TYPE:WALL-OUTER
G1 F600 X50.6 Y52.077 E6.90201
G1 X50 Y52.196 E6.91218
G1 X49.4 Y52.077 E6.92236
G1 X49.4 Y50.6 E6.94692
G1 X47.923 Y50.6 E6.97148
G1 X47.804 Y50 E6.98165
G1 X47.923 Y49.4 E6.99183
G1 X49.4 Y49.4 E7.01639
G1 X49.4 Y47.923 E7.04095
G1 X50 Y47.804 E7.05112
G1 X50.6 Y47.923 E7.0613
G1 X50.6 Y49.4 E7.08586
G1 X52.077 Y49.4 E7.11042
G1 X52.196 Y50 E7.12059
G1 X52.077 Y50.6 E7.13077
G1 X50.6 Y50.6 E7.15533
G0 F7200 X50.6 Y50.8
;MESH:NONMESH
G0 F600 X50.6 Y50.8 Z1.5
G0 F7200 X50.2 Y50.2
;TIME_ELAPSED:33.765308
;LAYER:12
;TYPE:WALL-INNER
;MESH:3707.stl
G1 F1200 X50.2 Y51.749 E7.18109
G1 X50 Y51.789 E7.18448
G1 X49.8 Y51.749 E7.18787
G1 X49.8 Y50.2 E7.21363
G1 X48.251 Y50.2 E7.23939
G1 X48.211 Y50 E7.24278
G1 X48.251 Y49.8 E7.24618
G1 X49.8 Y49.8 E7.27194
G1 X49.8 Y48.251 E7.2977
G1 X50 Y48.211 E7.30109
G1 X50.2 Y48.251 E7.30448
G1 X50.2 Y49.8 E7.33024
G1 X51.749 Y49.8 E7.356
G1 X51.789 Y50 E7.35939
G1 X51.749 Y50.2 E7.36278
G1 X50.2 Y50.2 E7.38854
G0 F7200 X50.6 Y50.6
;TYPE:WALL-OUTER
G1 F600 X50.6 Y52.077 E7.41311
G1 X50 Y52.196 E7.42328
G1 X49.4 Y52.077 E7.43345
G1 X49.4 Y50.6 E7.45801
G1 X47.923 Y50.6 E7.48258
G1 X47.804 Y50 E7.49275
G1 X47.923 Y49.4 E7.50292
G1 X49.4 Y49.4 E7.52748
G1 X49.4 Y47.923 E7.55205
G1 X50 Y47.804 E7.56222
G1 X50.6 Y47.923 E7.57239
G1 X50.6 Y49.4 E7.59695
G1 X52.077 Y49.4 E7.62152
G1 X52.196 Y50 E7.63169
G1 X52.077 Y50.6 E7.64186
G1 X50.6 Y50.6 E7.66642
G0 F7200 X50.6 Y50.8
;MESH:NONMESH
G0 F600 X50.6 Y50.8 Z1.6
G0 F7200 X50.2 Y50.2
;TIME_ELAPSED:36.240381
;LAYER:13
;TYPE:WALL-INNER
;MESH:3707.stl
G1 F1200 X50.2 Y51.749 E7.69218
G1 X50 Y51.789 E7.69558
G1 X49.8 Y51.749 E7.69897
G1 X49.8 Y50.2 E7.72473
G1 X48.251 Y50.2 E7.75049
G1 X48.211 Y50 E7.75388
G1 X48.251 Y49.8 E7.75727
G1 X49.8 Y49.8 E7.78303
G1 X49.8 Y48.251 E7.80879
G1 X50 Y48.211 E7.81218
G1 X50.2 Y48.251 E7.81557
G1 X50.2 Y49.8 E7.84133
G1 X51.749 Y49.8 E7.86709
G1 X51.789 Y50 E7.87049
G1 X51.749 Y50.2 E7.87388
G1 X50.2 Y50.2 E7.89964
G0 F7200 X50.6 Y50.6
;TYPE:WALL-OUTER
G1 F600 X50.6 Y52.077 E7.9242
G1 X50 Y52.196 E7.93437
G1 X49.4 Y52.077 E7.94455
G1 X49.4 Y50.6 E7.96911
G1 X47.923 Y50.6 E7.99367
G1 X47.804 Y50 E8.00384
G1 X47.923 Y49.4 E8.01402
G1 X49.4 Y49.4 E8.03858
G1 X49.4 Y47.923 E8.06314
G1 X50 Y47.804 E8.07331
G1 X50.6 Y47.923 E8.08349
G1 X50.6 Y49.4 E8.10805
G1 X52.077 Y49.4 E8.13261
G1 X52.196 Y50 E8.14278
G1 X52.077 Y50.6 E8.15296
G1 X50.6 Y50.6 E8.17752
G0 F7200 X50.6 Y50.8
;MESH:NONMESH
G0 F600 X50.6 Y50.8 Z1.7
G0 F7200 X50.2 Y50.2
;TIME_ELAPSED:38.715454
;LAYER:14
;TYPE:WALL-INNER
;MESH:3707.stl
G1 F1200 X50.2 Y51.749 E8.20328
G1 X50 Y51.789 E8.20667
G1 X49.8 Y51.749 E8.21006
G1 X49.8 Y50.2 E8.23582
G1 X48.251 Y50.2 E8.26158
G1 X48.211 Y50 E8.26497
G1 X48.251 Y49.8 E8.26837
G1 X49.8 Y49.8 E8.29413
G1 X49.8 Y48.251 E8.31989
G1 X50 Y48.211 E8.32328
G1 X50.2 Y48.251 E8.32667
G1 X50.2 Y49.8 E8.35243
G1 X51.749 Y49.8 E8.37819
G1 X51.789 Y50 E8.38158
G1 X51.749 Y50.2 E8.38497
G1 X50.2 Y50.2 E8.41073
G0 F7200 X50.6 Y50.6
;TYPE:WALL-OUTER
G1 F600 X50.6 Y52.077 E8.4353
G1 X50 Y52.196 E8.44547
G1 X49.4 Y52.077 E8.45564
G1 X49.4 Y50.6 E8.4802
G1 X47.923 Y50.6 E8.50477
G1 X47.804 Y50 E8.51494
G1 X47.923 Y49.4 E8.52511
G1 X49.4 Y49.4 E8.54967
G1 X49.4 Y47.923 E8.57424
G1 X50 Y47.804 E8.58441
G1 X50.6 Y47.923 E8.59458
G1 X50.6 Y49.4 E8.61914
G1 X52.077 Y49.4 E8.64371
G1 X52.196 Y50 E8.65388
G1 X52.077 Y50.6 E8.66405
G1 X50.6 Y50.6 E8.68861
G0 F7200 X50.6 Y50.8
;MESH:NONMESH
G0 F600 X50.6 Y50.8 Z1.8
G0 F7200 X50.2 Y50.2
;TIME_ELAPSED:41.190527
;LAYER:15
;TYPE:WALL-INNER
;MESH:3707.stl
G1 F1200 X50.2 Y51.749 E8.71437
G1 X50 Y51.789 E8.71777
G1 X49.8 Y51.749 E8.72116
G1 X49.8 Y50.2 E8.74692
G1 X48.251 Y50.2 E8.77268
G1 X48.211 Y50 E8.77607
G1 X48.251 Y49.8 E8.77946
G1 X49.8 Y49.8 E8.80522
G1 X49.8 Y48.251 E8.83098
G1 X50 Y48.211 E8.83437
G1 X50.2 Y48.251 E8.83776
G1 X50.2 Y49.8 E8.86352
G1 X51.749 Y49.8 E8.88928
G1 X51.789 Y50 E8.89268
G1 X51.749 Y50.2 E8.89607
G1 X50.2 Y50.2 E8.92183
G0 F7200 X50.6 Y50.6
;TYPE:WALL-OUTER
G1 F600 X50.6 Y52.077 E8.94639
G1 X50 Y52.196 E8.95656
G1 X49.4 Y52.077 E8.96674
G1 X49.4 Y50.6 E8.9913
G1 X47.923 Y50.6 E9.01586
